X:11
T:Mrs Casey. THO5.011
M:6/8
L:1/8
B:Thompson's Complete Collection of 200 Favourite Dances Vol.5
F:https://www.libraryofdance.org/manuals/1780c-Thompson-Compleat-5.pdf
Q:3/8=100
K:C
e/d/|:c2A AGA|G2G G2G|A2A ABA|(f3 e2) d|
c2A ABA|G2G G2G|A2A ABA|(f3 !fine!e2):|
d|c2d e2f|g2a g2e|c2d e2f|(g3 f2) e|
(a2f) (g2e)|(f2d) (e2c)|A2A ABA|(f3 e2) !D.C.!d|]
W:
W:Cast off 2 Couples. and up again ./.
W:Lead down the middle, up again and cast off ./:
W:Set corners :/. Lead out-sides:/:

